X:1
T:Adam Catched Eve (round)
M:4/4
L:1/4
K:A
 A A A2| G2 F E| F3 F| E4| D D D2| C2 B, A,| B,3 E| A,4| z c c d| ed/2-c/2 B c|\
 d A A B| cB/2-A/2 G A| B F F G| A2 B- c| d2 c- B| c4| z A, A G/2F/2|\
 E2 z2| z A/2G/2 F E/2D/2| C2 z2| z F/2E/2 D C/2B,/2| A,2 z2| z C/2D/2 E F/2G/2|\
 A4|
